flaticon/weather/wind-3.svg

<svg xmlns="http://www.w3.org/2000/svg" width="32" height="32" viewBox="0 0 24 24">
    <path d="M 20.660156 19.953125 L 15.304688 6.226562 C 15.289062 6.160156 15.261719 6.097656 15.230469 6.035156 C 15.226562 6.027344 15.222656 6.019531 15.222656 6.015625 C 14.890625 5.417969 14.023438 5.3125 12.953125 5.523438 L 5.601562 4.453125 L 5.601562 3.960938 C 6.515625 3.773438 7.203125 2.964844 7.203125 2 C 7.203125 0.898438 6.304688 0 5.203125 0 C 4.097656 0 3.203125 0.898438 3.203125 2 C 3.203125 2.964844 3.890625 3.773438 4.800781 3.960938 L 4.800781 19.199219 L 4.003906 19.199219 L 4.003906 21.601562 L 3.203125 21.601562 L 3.203125 24 L 7.203125 24 L 7.203125 21.601562 L 6.402344 21.601562 L 6.402344 19.199219 L 5.601562 19.199219 L 5.601562 8.65625 L 6.003906 10.566406 C 6.003906 10.765625 6.054688 10.929688 6.125 11.054688 C 6.160156 11.117188 6.199219 11.171875 6.246094 11.222656 C 6.25 11.230469 6.253906 11.234375 6.257812 11.242188 L 15.0625 23.058594 C 15.234375 23.347656 15.574219 23.671875 16.261719 23.671875 C 16.804688 23.671875 17.5625 23.464844 18.625 22.878906 C 21.019531 21.550781 20.9375 20.488281 20.660156 19.953125 Z M 6.402344 23.199219 L 4.003906 23.199219 L 4.003906 22.398438 L 6.402344 22.398438 Z M 4.800781 21.601562 L 4.800781 20 L 5.601562 20 L 5.601562 21.601562 Z M 17.4375 13.894531 L 18.039062 15.429688 C 17.425781 16.058594 16.523438 16.726562 15.519531 17.28125 C 14.515625 17.839844 13.472656 18.25 12.613281 18.4375 L 11.628906 17.113281 C 12.5625 16.914062 13.660156 16.484375 14.746094 15.882812 C 15.828125 15.28125 16.773438 14.582031 17.4375 13.894531 Z M 15.910156 17.980469 C 16.859375 17.453125 17.707031 16.847656 18.351562 16.242188 L 18.953125 17.773438 C 18.351562 18.332031 17.558594 18.894531 16.683594 19.382812 C 15.804688 19.867188 14.90625 20.238281 14.113281 20.449219 L 13.132812 19.132812 C 13.992188 18.90625 14.953125 18.511719 15.910156 17.980469 Z M 14.53125 6.621094 C 14.523438 6.644531 14.519531 6.667969 14.511719 6.695312 C 14.503906 6.710938 14.496094 6.730469 14.488281 6.75 C 14.476562 6.777344 14.46875 6.804688 14.453125 6.835938 C 14.441406 6.855469 14.429688 6.878906 14.421875 6.898438 C 14.40625 6.929688 14.386719 6.960938 14.367188 6.992188 C 14.355469 7.015625 14.339844 7.039062 14.324219 7.0625 C 14.300781 7.097656 14.277344 7.132812 14.253906 7.167969 C 14.234375 7.195312 14.214844 7.21875 14.195312 7.246094 C 14.171875 7.28125 14.140625 7.320312 14.113281 7.355469 C 14.089844 7.382812 14.066406 7.414062 14.039062 7.441406 C 14.007812 7.480469 13.976562 7.519531 13.941406 7.558594 C 13.914062 7.589844 13.886719 7.621094 13.855469 7.652344 C 13.820312 7.691406 13.78125 7.730469 13.742188 7.769531 C 13.707031 7.804688 13.675781 7.839844 13.640625 7.871094 C 13.597656 7.914062 13.554688 7.953125 13.511719 7.996094 C 13.472656 8.03125 13.433594 8.066406 13.394531 8.101562 C 13.347656 8.144531 13.296875 8.183594 13.25 8.226562 C 13.207031 8.265625 13.160156 8.300781 13.117188 8.339844 C 13.066406 8.382812 13.011719 8.425781 12.957031 8.46875 C 12.90625 8.503906 12.859375 8.542969 12.808594 8.582031 C 12.75 8.625 12.6875 8.671875 12.628906 8.714844 C 12.574219 8.753906 12.523438 8.792969 12.46875 8.832031 C 12.402344 8.875 12.332031 8.921875 12.265625 8.96875 C 12.210938 9.003906 12.15625 9.042969 12.097656 9.082031 C 12.019531 9.132812 11.933594 9.183594 11.851562 9.234375 C 11.796875 9.265625 11.746094 9.300781 11.691406 9.332031 C 11.550781 9.417969 11.40625 9.5 11.253906 9.585938 C 11.105469 9.667969 10.957031 9.746094 10.808594 9.820312 C 10.75 9.851562 10.691406 9.878906 10.632812 9.910156 C 10.550781 9.949219 10.464844 9.992188 10.382812 10.03125 C 10.3125 10.0625 10.25 10.089844 10.179688 10.121094 C 10.113281 10.152344 10.042969 10.183594 9.976562 10.210938 C 9.90625 10.242188 9.835938 10.269531 9.769531 10.296875 C 9.707031 10.320312 9.648438 10.347656 9.589844 10.367188 C 9.519531 10.394531 9.449219 10.417969 9.382812 10.441406 C 9.328125 10.460938 9.273438 10.480469 9.222656 10.5 C 9.152344 10.523438 9.089844 10.542969 9.023438 10.5625 C 8.972656 10.578125 8.925781 10.59375 8.875 10.609375 C 8.8125 10.628906 8.75 10.644531 8.6875 10.660156 C 8.640625 10.675781 8.597656 10.6875 8.554688 10.695312 C 8.492188 10.710938 8.433594 10.726562 8.375 10.738281 C 8.335938 10.746094 8.292969 10.753906 8.253906 10.761719 C 8.199219 10.773438 8.144531 10.785156 8.089844 10.792969 C 8.054688 10.800781 8.015625 10.804688 7.980469 10.8125 C 7.929688 10.816406 7.878906 10.824219 7.832031 10.828125 C 7.796875 10.835938 7.765625 10.835938 7.730469 10.839844 C 7.6875 10.84375 7.644531 10.847656 7.601562 10.847656 C 7.570312 10.851562 7.539062 10.851562 7.507812 10.851562 C 7.46875 10.851562 7.433594 10.851562 7.398438 10.851562 C 7.367188 10.851562 7.339844 10.847656 7.3125 10.847656 C 7.28125 10.84375 7.25 10.84375 7.222656 10.839844 C 7.195312 10.835938 7.171875 10.832031 7.144531 10.828125 C 7.121094 10.824219 7.097656 10.820312 7.078125 10.8125 C 7.054688 10.808594 7.03125 10.800781 7.011719 10.792969 C 6.996094 10.789062 6.976562 10.78125 6.960938 10.777344 C 6.941406 10.769531 6.925781 10.757812 6.910156 10.75 C 6.898438 10.742188 6.886719 10.734375 6.875 10.726562 C 6.867188 10.71875 6.859375 10.710938 6.855469 10.703125 L 6.847656 10.695312 L 6.808594 10.511719 C 6.835938 10.316406 6.988281 9.96875 7.453125 9.464844 C 8.070312 8.789062 9.007812 8.089844 10.089844 7.488281 C 11.238281 6.851562 12.222656 6.5 12.972656 6.335938 L 14.542969 6.566406 C 14.539062 6.570312 14.542969 6.570312 14.539062 6.574219 C 14.539062 6.589844 14.53125 6.605469 14.53125 6.621094 Z M 4.003906 2 C 4.003906 1.339844 4.539062 0.800781 5.203125 0.800781 C 5.863281 0.800781 6.402344 1.339844 6.402344 2 C 6.402344 2.660156 5.863281 3.199219 5.203125 3.199219 C 4.539062 3.199219 4.003906 2.660156 4.003906 2 Z M 5.710938 5.277344 L 11.183594 6.074219 C 10.6875 6.277344 10.1875 6.519531 9.703125 6.785156 C 8.542969 7.429688 7.535156 8.1875 6.859375 8.921875 C 6.742188 9.050781 6.640625 9.171875 6.550781 9.289062 Z M 7.746094 11.632812 C 7.816406 11.628906 7.886719 11.625 7.960938 11.617188 C 8.042969 11.605469 8.128906 11.589844 8.214844 11.578125 C 8.289062 11.566406 8.359375 11.554688 8.433594 11.539062 C 8.527344 11.519531 8.625 11.496094 8.71875 11.472656 C 8.792969 11.453125 8.863281 11.441406 8.9375 11.417969 C 9.042969 11.390625 9.148438 11.355469 9.253906 11.324219 C 9.324219 11.300781 9.390625 11.28125 9.460938 11.257812 C 9.578125 11.21875 9.695312 11.175781 9.808594 11.132812 C 9.875 11.109375 9.9375 11.085938 10.003906 11.0625 C 10.128906 11.011719 10.257812 10.957031 10.382812 10.902344 C 10.4375 10.875 10.496094 10.855469 10.550781 10.832031 C 10.691406 10.765625 10.835938 10.699219 10.976562 10.628906 C 11.019531 10.609375 11.058594 10.589844 11.097656 10.570312 C 11.28125 10.480469 11.460938 10.382812 11.640625 10.285156 C 11.804688 10.195312 11.960938 10.101562 12.117188 10.007812 C 12.171875 9.976562 12.21875 9.945312 12.269531 9.914062 C 12.375 9.847656 12.480469 9.78125 12.585938 9.710938 C 12.640625 9.675781 12.695312 9.636719 12.75 9.601562 C 12.851562 9.53125 12.949219 9.464844 13.046875 9.394531 C 13.09375 9.359375 13.144531 9.324219 13.191406 9.289062 C 13.324219 9.191406 13.453125 9.089844 13.578125 8.988281 C 13.585938 8.980469 13.597656 8.972656 13.605469 8.964844 C 13.734375 8.859375 13.859375 8.753906 13.976562 8.648438 C 14.015625 8.613281 14.050781 8.578125 14.089844 8.542969 C 14.167969 8.46875 14.246094 8.390625 14.320312 8.316406 C 14.359375 8.277344 14.398438 8.238281 14.433594 8.199219 C 14.503906 8.121094 14.570312 8.046875 14.636719 7.96875 C 14.664062 7.9375 14.695312 7.902344 14.722656 7.867188 C 14.808594 7.761719 14.886719 7.652344 14.957031 7.546875 C 14.960938 7.546875 14.960938 7.542969 14.960938 7.542969 L 17.117188 13.066406 C 16.519531 13.765625 15.511719 14.542969 14.359375 15.183594 C 13.203125 15.820312 12.007812 16.265625 11.097656 16.398438 L 7.558594 11.644531 C 7.617188 11.644531 7.683594 11.636719 7.746094 11.632812 Z M 18.234375 22.179688 C 16.6875 23.039062 15.925781 22.964844 15.746094 22.644531 L 14.625 21.136719 C 15.402344 20.898438 16.246094 20.539062 17.070312 20.082031 C 17.890625 19.625 18.648438 19.101562 19.261719 18.570312 L 19.921875 20.269531 L 19.945312 20.316406 C 20.140625 20.664062 19.6875 21.375 18.234375 22.179688 Z M 18.234375 22.179688"/>
</svg>

<svg xmlns="http://www.w3.org/2000/svg" width="32" height="32" viewBox="0 0 24 24">
    <path d="M20.66 19.953L15.305 6.227a.882.882 0 0 0-.082-.211c-.332-.598-1.2-.704-2.27-.493l-7.351-1.07v-.492A2.006 2.006 0 0 0 7.203 2c0-1.102-.898-2-2-2a2.001 2.001 0 0 0-.402 3.96V19.2h-.797v2.402h-.8V24h4v-2.398h-.802v-2.403h-.8V8.656l.402 1.91c0 .2.05.364.121.489a.877.877 0 0 0 .121.168c.004.007.008.011.012.02l8.804 11.816c.172.289.512.613 1.2.613.543 0 1.3-.207 2.363-.793 2.395-1.328 2.313-2.39 2.035-2.926zM6.402 23.2H4.004v-.8h2.398zm-1.601-1.597V20h.8v1.602zm12.636-7.707l.602 1.535c-.613.629-1.516 1.297-2.52 1.851-1.003.559-2.046.969-2.906 1.157l-.984-1.325c.934-.199 2.031-.629 3.117-1.23 1.082-.602 2.027-1.301 2.691-1.988zM15.91 17.98c.95-.527 1.797-1.132 2.442-1.738l.601 1.531c-.601.559-1.394 1.122-2.27 1.61-.878.484-1.777.855-2.57 1.066l-.98-1.316c.86-.227 1.82-.621 2.777-1.153zM14.531 6.621c-.008.024-.011.047-.02.074l-.023.055c-.011.027-.02.055-.035.086a.466.466 0 0 0-.031.062c-.016.032-.035.063-.055.094-.012.024-.027.047-.043.07l-.07.106c-.02.027-.04.05-.059.078-.023.035-.054.074-.082.11-.023.027-.047.058-.074.085-.031.04-.062.079-.098.118-.027.03-.054.062-.086.093-.035.04-.074.078-.113.118-.035.035-.066.07-.101.101-.043.043-.086.082-.13.125l-.116.106c-.047.043-.098.082-.145.125-.043.039-.09.074-.133.113-.05.043-.105.086-.16.129-.05.035-.098.074-.148.113l-.18.133-.16.117c-.067.043-.137.09-.203.137-.055.035-.11.074-.168.113-.078.05-.164.102-.246.152-.055.032-.106.067-.16.098-.141.086-.286.168-.438.254-.149.082-.297.16-.445.234-.059.032-.118.059-.176.09l-.25.121-.203.09a4.604 4.604 0 0 1-.203.09c-.07.031-.141.059-.207.086-.063.023-.122.05-.18.07-.07.028-.14.051-.207.074l-.16.059c-.07.023-.133.043-.2.063l-.148.046c-.063.02-.125.036-.188.051a.96.96 0 0 1-.132.035c-.063.016-.121.032-.18.043l-.121.024c-.055.011-.11.023-.164.031-.035.008-.074.012-.11.02-.05.003-.101.011-.148.015-.035.008-.066.008-.102.012a1.427 1.427 0 0 1-.128.008c-.032.004-.063.004-.094.004h-.11c-.03 0-.058-.004-.085-.004-.032-.004-.063-.004-.09-.008l-.078-.012a.33.33 0 0 1-.067-.015.33.33 0 0 1-.066-.02l-.051-.016c-.02-.007-.035-.02-.05-.027l-.036-.023c-.008-.008-.016-.016-.02-.024l-.007-.008-.04-.183c.028-.196.18-.543.645-1.047.617-.676 1.555-1.375 2.637-1.977 1.148-.636 2.133-.988 2.883-1.152l1.57.23c-.004.004 0 .004-.004.008 0 .016-.008.031-.008.047zM4.004 2a1.2 1.2 0 1 1 2.399 0 1.2 1.2 0 0 1-2.4 0zM5.71 5.277l5.473.797a14.65 14.65 0 0 0-1.48.711c-1.161.645-2.169 1.402-2.845 2.137-.117.129-.218.25-.308.367zm2.035 6.356c.07-.004.14-.008.215-.016.082-.012.168-.027.254-.039a4.28 4.28 0 0 0 .504-.105c.074-.02.144-.032.219-.055.105-.027.21-.063.316-.094l.207-.066c.117-.04.234-.082.348-.125l.195-.07c.125-.051.254-.106.379-.16.055-.028.113-.048.168-.071.14-.066.285-.133.426-.203.043-.02.082-.04.12-.059.184-.09.364-.187.544-.285.164-.09.32-.183.476-.277.055-.031.102-.063.153-.094.105-.066.21-.133.316-.203.055-.035.11-.074.164-.11.102-.07.2-.136.297-.206.047-.036.098-.07.144-.106.133-.098.262-.2.387-.3.008-.009.02-.016.027-.024.13-.106.254-.211.372-.317l.113-.105a12.711 12.711 0 0 0 .344-.344c.07-.078.136-.152.203-.23.027-.032.058-.067.086-.102.086-.105.164-.215.234-.32.004 0 .004-.004.004-.004l2.156 5.523c-.597.7-1.605 1.477-2.758 2.118-1.156.636-2.351 1.082-3.261 1.214l-3.54-4.753c.06 0 .126-.008.188-.012zM18.234 22.18c-1.547.86-2.308.785-2.488.465l-1.121-1.508a12.985 12.985 0 0 0 2.445-1.055 13.24 13.24 0 0 0 2.192-1.512l.66 1.7.023.046c.196.348-.258 1.059-1.71 1.864zm0 0"/>
</svg>
